!!!OTL: SEHT WIE DIE SONNE DORT SINKET (SUESSER DIE GLOCKE NIE KLINGET)
!!!ARE: Europa, Mitteleuropa, Deutschland, Thueringen; Schlesien
!!!SCT: B0228
!!!YEM: Copyright 1995, estate of Helmut Schaffrath.
**kern
*ICvox
*Ivox
*M6/8
*k[b-]
*F:
=1
{8.a
16a
8a
8a
8g
8a
=2
4.cc
4.g}
=3
{8.g
16g
8g
8g
8f
8g
=4
2a
4r}
=5
{8.cc
16b-
8a
8a
8g
8f
=6
4.ff
4.dd}
=7
{8.cc
16dd
8cc
8cc
8b-
8g
=8
4.f
4.r}
=9
{8.g
16g
8g
8a
8a
16r
16a
=10
8cc
8b-
8b-
4.a}
=11
{8.g
16g
8g
8a
8a
16r
16a
=12
8cc
8b-
8b-
4.a}
=13
{8.cc
16b-
8a
8a
8g
8f
=14
4.ff
4.dd}
=15
{8.cc
16dd
8cc
8cc
8b-
8g
=16
4.f
4.r}
==
!!!AGN: Tageszeiten - Lied, Abend
!!!ONB: ESAC (Essen Associative Code) Database: BOEHME
!!!AMT: compound duple
!!!AIN: vox
!!!EED: Helmut Schaffrath
!!!EEV: 1.0
*-
